X:1
T:Mädchens Wunsch
T:Frédéric Chopin
T:Polnisches Lied
T:Mädchens Wunsch
T:CPDL   —   Creative Commons Attribution Non Commercial 3.0
T:CPDL   —   Creative Commons Attribution Non Commercial 3.0
T:CPDL   —   Creative Commons Attribution Non Commercial 3.0
C:Frédéric Chopin
Z:CPDL   —   Creative Commons Attribution Non Commercial 3.0
%%score [ 1 2 3 4 ]
L:1/8
Q:1/4=120
M:3/4
K:Bb
V:1 treble nm="Sopran"
V:2 treble nm="Alt"
V:3 treble-8 nm="Tenor"
V:4 bass nm="Bass"
V:1
"^Ein wenig lebhaft"!<(! B2 A2!<)! G2 |!>(! G4!>)! F2 |!p! F!<(!e e2!<)! e2 |!>(! d2!>)! f2 z2 | %4
w: 1. Könnt ich als|Son- ne|hoch am Him- mel|schwe- ben,|
w: 2.  Wär ich ein|Vög- lein,|herr- lich wollt' ich|sin- gen,|
!<(! B2 A2 G2!<)! |!>(! G3 F!>)! F2 |!<(! Fe G2!<)! A2 |!>(! c2 B2!>)! z2 |!mf!!<(! A3 ^F!<)! D2 | %9
w: ach nur für|dich wollt ich|mei- ne Strah- len|ge- ben;|nicht für die|
w: dass dir mein|Lied- chen sollt'|in die See- le|drin- gen;|säng' nicht in|
!>(! (G2 A2)!>)! B2 |!<(! A3 ^F!<)! D2 |!>(! (G2 A2)!>)! B2 | %12
w: Fel- * der,|nicht für die|Wäl- * der,|
w: Wäl- * dern,|nicht in den|Fel- * dern,|
 B2[Q:1/4=120]"^(ad libitum)"!<(! BB A!<)!B |!>(! d4!>)! c2 | %14
w: 1\-2. dort wo dein klei- nes|Fens- ter,|
w: ||
!f!"^espressivo"[Q:1/4=120]"^a tempo" B2 A2 G2 |!>(! G4!>)! F2 |!<(! Fe e2!<)! e2 | %17
w: 1. dort hin- ein|würd' ich|mei- ne Strah- len|
w: 2. wär ich ein|Vög- lein,|dort nur wollt ich|
!>(! d2!>)! f2 z2 |!<(! B2 A2!<)! G2 |!>(! G4!>)! F2 |!<(! Fe G2!<)! A2 |!>(! c2!>)! B2 z2 |] %22
w: ge- ben,|könnt ich als|Son- ne|hoch am Him- mel|schwe- ben.|
w: sin- gen,|dir sollt mein|Lied- chen|in die See- le|drin- gen.|
V:2
!<(! D2 D2!<)! D2 |!>(! E4!>)! E2 |!p! E!<(!E C2!<)! F2 | (F2 BF) D2 |!<(! D2 D2 D2!<)! | %5
w: |||schwe- * * ben,||
w: |||sin- * * gen,||
!>(! E3 E!>)! E2 |!<(! EE E2!<)! E2 |!>(! E2 D2!>)! z2 |!mf!!<(! D2 E2!<)! D2 |!>(! D4!>)! D2 | %10
w: |||||
w: |||||
!<(! D2 E2!<)! D2 |!>(! D4!>)! D2 | =E2 z2 z2 | =E2!<(! EE ^D!<)!E |!>(! =E4!>)! E2 | %15
w: ||1\-2. dort,|dort wo dein klei- nes|Fens- ter,|
w: |||||
!>(! _E4!>)! E2 |!<(! EE C2!<)! F2 |!>(! (F2 BF)!>)! D2 |!<(! ^C2 C2!<)! C2 |!>(! D4!>)! D2 | %20
w: würd' ich|mei- ne Strah- len||||
w: wollt ich,|dort nur wollt ich||||
!<(! EE E2!<)! E2 |!>(! E2!>)! D2 z2 |] %22
w: ||
w: ||
V:3
!<(! F2 F2!<)! FB |!>(! B4!>)! A2 |!p! A!<(!A G2!<)! A2 |!>(! B2!>)! d2 z2 |!<(! F2 F2 FB!<)! | %5
w: 1. Könnt ich als _|Son- ne|hoch am Him- mel|schwe- ben,|ach nur für *|
w: 2.  Wär ich ein _|Vög- lein,|herr- lich wollt' ich|sin- gen,|dass dir mein *|
!>(! B3 A!>)! A2 |!<(! AA B2!<)! c2 |!>(! A2 B2!>)! z2 |!mf!!<(! ^F2 G2!<)! F2 | %9
w: dich wollt ich|mei- ne Strah- len|ge- ben;|nicht für die|
w: Lied- chen sollt'|in die See- le|drin- gen;|säng' nicht in|
!>(! (G3 D)!>)! G2 |!<(! ^F2 G2!<)! F2 |!>(! (G3 D)!>)! G2 | G2!<(! GG ^F!<)!G |!>(! B4!>)! B2 | %14
w: Fel- * der,|nicht für die|Wäl- * der,|1\-2. dort wo dein klei- nes|Fens- ter,|
w: Wäl- * dern,|nicht in den|Fel- * dern,|||
!f! d2 c2 B2 |!>(! B4!>)! A2 |!<(! AA G2!<)! A2 |!>(! B2!>)! d2 z2 |!<(! G2 A2!<)! B2 | %19
w: 1. dort hin- ein|würd' ich|mei- ne Strah- len|ge- ben,|könnt ich als|
w: 2. wär ich ein|Vög- lein,|dort nur wollt ich|sin- gen,|dir sollt mein|
!>(! B4!>)! B2 |!<(! AA B2!<)! c2 |!>(! A2!>)! B2 z2 |] %22
w: Son- ne|hoch am Him- mel|schwe- ben.|
w: Lied- chen|in die See- le|drin- gen.|
V:4
!<(! B,,2 B,,2!<)! B,,2 |!>(! C,4!>)! C,2 |!p! F,!<(!F, F,2!<)! F,2 |!<(! B,4!<)!!>(! F,D,!>)! | %4
w: |||schwe- ben, _|
w: |||sin- gen, _|
!<(! B,,2 B,,2 B,,2!<)! |!>(! C,3 C,!>)! C,2 |!<(! F,F, F,2!<)! F,2 |!>(! F,2 (B,,2!>)! C,2) | %8
w: _ _ _||||
w: _ _ _||||
!mf!!<(! D,3 D,!<)! D,C, |!>(! (B,,2 A,,2)!>)! G,,2 |!<(! D,3 D,!<)! D,C, | %11
w: |||
w: |||
!>(! (B,,2 A,,2)!>)! G,,2 | C,2 z2 z2 | C,2!<(! G,G, ^F,!<)!G, |!>(! C4!>)! C,2 |!>(! F,4!>)! F,2 | %16
w: |1\-2. dort,|dort wo dein klei- nes|Fens- ter,|würd' ich|
w: ||||wollt ich,|
!<(! F,F, F,2!<)! F,2 |"^ge      -       ben\nsin     -       gen"!<(! B,,4!<)! B,,D, | %18
w: mei- ne Strah- len||
w: dort nur wollt ich||
!<(! =E,2 E,2!<)! E,2 |!>(! F,4!>)! F,2 |!<(! F,F, F,2!<)! F,2 |!>(! F,2!>)! B,,2 z2 |] %22
w: ||||
w: ||||

